X:11001
T:Katyusha
R:March
C:Matvei Blanter 1938, after earlier trad.
O:Russia
M:2/4
L:1/8
Q:1/8=240
K:Em
"Em"E3F|G3E|GG FE|"B7"F2B,2|F3G|A3F|AA GF|"Em"E>F GA|:
"Em"B2"C"e2|"G"d2"E7"ed|"Am"cc BA|"Em"B2 E2|"Am"zc2A|"Em"B3G|"B7"AA GF|"Em"E4:|

